teeny/outline/nintendo-switch.svg

<svg width="15" height="15" viewBox="0 0 15 15" fill="none" xmlns="http://www.w3.org/2000/svg">
<path d="M8.5 14.5H8C8 14.6326 8.05268 14.7598 8.14645 14.8536C8.24021 14.9473 8.36739 15 8.5 15V14.5ZM8.5 2.5V2C8.36739 2 8.24021 2.05268 8.14645 2.14645C8.05268 2.24022 8 2.36739 8 2.5H8.5ZM14.5 11.5H15H14.5ZM11.5 14.5V14V14.5ZM14.5 5.5H14H14.5ZM11.5 2.5V3V2.5ZM6.5 0.500002L7 0.500002C7 0.22386 6.77614 2.32458e-06 6.5 2.14577e-06L6.5 0.500002ZM6.5 12.5V13C6.77614 13 7 12.7761 7 12.5H6.5ZM0.5 3.5H1H0.5ZM3.5 0.5L3.5 1L3.5 0.5ZM3.5 12.5V13V12.5ZM0.5 9.5H0H0.5ZM14 5.5V11.5H15V5.5H14ZM11.5 14H8.5V15H11.5V14ZM9 14.5V2.5H8L8 14.5H9ZM8.5 3L11.5 3V2L8.5 2L8.5 3ZM14 11.5C14 12.8807 12.8807 14 11.5 14V15C13.433 15 15 13.433 15 11.5H14ZM15 5.5C15 3.56701 13.433 2.00001 11.5 2V3C12.8807 3.00001 14 4.11929 14 5.5H15ZM6 0.500002L6 12.5H7L7 0.500002L6 0.500002ZM6.5 12H3.5V13H6.5V12ZM1 9.5L1 3.5H2.68221e-07L0 9.5H1ZM3.5 1L6.5 1L6.5 2.14577e-06L3.5 0L3.5 1ZM1 3.5C1 2.11929 2.11929 0.999999 3.5 1L3.5 0C1.56701 -1.37091e-06 3.57628e-07 1.567 2.68221e-07 3.5H1ZM3.5 12C2.11929 12 1 10.8807 1 9.5H0C-5.96046e-08 11.433 1.567 13 3.5 13V12ZM13 10.5C13 9.67157 12.3284 9 11.5 9V10C11.7761 10 12 10.2239 12 10.5H13ZM11.5 12C12.3284 12 13 11.3284 13 10.5H12C12 10.7761 11.7761 11 11.5 11V12ZM10 10.5C10 11.3284 10.6716 12 11.5 12V11C11.2239 11 11 10.7761 11 10.5H10ZM11 10.5C11 10.2239 11.2239 10 11.5 10V9C10.6716 9 10 9.67157 10 10.5H11ZM3.5 5C3.22386 5 3 4.77614 3 4.5H2C2 5.32843 2.67157 6 3.5 6V5ZM4 4.5C4 4.77614 3.77614 5 3.5 5V6C4.32843 6 5 5.32843 5 4.5H4ZM3.5 4C3.77614 4 4 4.22386 4 4.5H5C5 3.67157 4.32843 3 3.5 3V4ZM3.5 3C2.67157 3 2 3.67157 2 4.5H3C3 4.22386 3.22386 4 3.5 4V3Z" fill="black"/>
</svg>

<svg viewBox="0 0 15 15" xmlns="http://www.w3.org/2000/svg"><path d="M8.5 14.5H8c0 .13.05.25.14.35 .09.09.22.14.35.14v-.5Zm0-12V2c-.14 0-.26.05-.36.14 -.1.09-.15.22-.15.35h.5Zm6 9h.5 -.5Zm-3 3V14v.5Zm3-9H14h.5Zm-3-3V3v-.5Zm-5-2H7c0-.28-.23-.5-.5-.5v.49Zm0 11.99v.5c.27 0 .5-.23.5-.5h-.5Zm-6-9H1 .5Zm3-3v.5 -.5Zm0 12v.5 -.5Zm-3-3H0h.5Zm13.5-4v6h1v-6h-1Zm-2.5 8.5h-3v1h3v-1Zm-2.5.5v-12H8v12h1Zm-.5-11.5h3v-1h-3v1Zm5.5 8.5c0 1.38-1.12 2.5-2.5 2.5v1c1.93 0 3.5-1.57 3.5-3.5h-1Zm1-6c0-1.94-1.57-3.5-3.5-3.5v1c1.38 0 2.5 1.11 2.5 2.5h1Zm-9-5v11.99h1v-12H6Zm.5 11.49h-3v1h3v-1ZM1 9.48v-6H0l-.01 6h1ZM3.5.98h3v-1l-3-.01v1ZM1 3.48C1 2.09 2.11.97 3.5.98v-1C1.56-.03 0 1.54 0 3.48h.99Zm2.5 8.5c-1.39 0-2.5-1.12-2.5-2.5H0c-.01 1.93 1.567 3.5 3.5 3.5v-1Zm9.5-1.5c0-.83-.68-1.5-1.5-1.5v1c.27 0 .5.22.5.5h1Zm-1.5 1.5c.82 0 1.5-.68 1.5-1.5h-1c0 .27-.23.5-.5.5v1Zm-1.5-1.5c0 .82.67 1.5 1.5 1.5v-1c-.28 0-.5-.23-.5-.5h-1Zm1 0c0-.28.22-.5.5-.5v-1c-.83 0-1.5.67-1.5 1.5h1Zm-7.5-5.5c-.28 0-.5-.23-.5-.5H2c0 .82.67 1.5 1.5 1.5v-1Zm.5-.5c0 .27-.23.5-.5.5v1c.82 0 1.5-.68 1.5-1.5H4Zm-.5-.5c.27 0 .5.22.5.5h1c0-.83-.68-1.5-1.5-1.5v1Zm0-1c-.83 0-1.5.67-1.5 1.5h1c0-.28.22-.5.5-.5v-1Z"/></svg>
